X:893
T:Cailleach am Fhraoich
O:england
S:Alexander Mackay, A collection of Reels...
B:NLS Glen.344
N:Mc16 in Gore's Scottish Fiddle Music Index
N:Gore guesses 1802, a note (by Murdoch Henderson)
N:on the titlepage says there's an 1832 watermark.
M:6/8
L:1/8
K:G
g|eAA edB|eAA A2g|eAA edB|dBG G2g|eAA edB|cBA a2e|gag g2e|dBG G2:|
g|aAA edB|AAA A2g|aAA edB|gGG G2g|agf edB|cBA a2e|gab efg|dBG G2:|
